src/icons/archive.svg

<svg xmlns="http://www.w3.org/2000/svg" width="32" height="32" viewBox="0 0 32 32">
    <path d="M31.781 20.375l-8-10c-0.19-0.237-0.477-0.375-0.781-0.375h-14c-0.304 0-0.591 0.138-0.781 0.375l-8 10c-0.142 0.177-0.219 0.398-0.219 0.625v9c0 1.105 0.895 2 2 2h28c1.105 0 2-0.895 2-2v-9c0-0.227-0.077-0.447-0.219-0.625zM30 22h-7l-4 4h-6l-4-4h-7v-0.649l7.481-9.351h13.039l7.481 9.351v0.649z"></path>
    <path d="M23 16h-14c-0.552 0-1-0.448-1-1s0.448-1 1-1h14c0.552 0 1 0.448 1 1s-0.448 1-1 1z"></path>
    <path d="M25 20h-18c-0.552 0-1-0.448-1-1s0.448-1 1-1h18c0.552 0 1 0.448 1 1s-0.448 1-1 1z"></path>
</svg>

<svg xmlns="http://www.w3.org/2000/svg" width="512" height="512" viewBox="0 0 512 512">
    <path d="M31.781 20.375l-8-10A1 1 0 0 0 23 10H9a1 1 0 0 0-.781.375l-8 10A1 1 0 0 0 0 21v9a2 2 0 0 0 2 2h28a2 2 0 0 0 2-2v-9c0-.227-.077-.447-.219-.625zM30 22h-7l-4 4h-6l-4-4H2v-.649L9.481 12H22.52l7.481 9.351V22z"/>
    <path d="M23 16H9a1 1 0 0 1 0-2h14a1 1 0 0 1 0 2zm2 4H7a1 1 0 0 1 0-2h18a1 1 0 0 1 0 2z"/>
</svg>
